docs/img/icon-widget-pagination.svg

<svg width="64px" height="69px" viewBox="0 0 64 69" version="1.1" xmlns="http://www.w3.org/2000/svg" xmlns:xlink="http://www.w3.org/1999/xlink" xmlns:sketch="http://www.bohemiancoding.com/sketch/ns"><title>icon-widget-pagination</title><desc>Created with Sketch.</desc><defs><linearGradient x1="42.9656982%" y1="14.0594482%" x2="85.1531982%" y2="110.153198%" id="linearGradient-1"><stop stop-color="#2CA5C3" offset="0%"/><stop stop-color="#136B90" offset="100%"/></linearGradient><linearGradient x1="10.9344482%" y1="-27.3468018%" x2="73.4344482%" y2="79.6844482%" id="linearGradient-2"><stop stop-color="#51C8E5" offset="0%"/><stop stop-color="#2897C5" offset="100%"/></linearGradient></defs><g id="Page-1" stroke="none" stroke-width="1" fill="none" fill-rule="evenodd" sketch:type="MSPage"><g id="instansearch-website" sketch:type="MSArtboardGroup" transform="translate(-177.000000, -414.000000)"><g id="icon-widget-pagination" sketch:type="MSLayerGroup" transform="translate(176.387237, 413.664529)"><g id="widget-bg" transform="translate(0.612763, 0.335471)" sketch:type="MSShapeGroup"><rect id="Rectangle-1-Copy" fill="url(#linearGradient-1)" x="0" y="5" width="64" height="64" rx="4"/><rect id="Rectangle-1" fill="url(#linearGradient-2)" x="0" y="0" width="64" height="64" rx="4"/></g><g id="Oval-37-+-Shape-+-Shape" transform="translate(15.000000, 27.000000)" fill="#FFFFFF" sketch:type="MSShapeGroup"><circle id="Oval-37" cx="5" cy="5" r="5"/><path d="M19,7.22222222 L19,7.22222222 C20.2272994,7.22222222 21.2222222,6.22729944 21.2222222,5 C21.2222222,3.77270056 20.2272994,2.77777778 19,2.77777778 C17.7727006,2.77777778 16.7777778,3.77270056 16.7777778,5 C16.7777778,6.22729944 17.7727006,7.22222222 19,7.22222222 L19,7.22222222 Z M19,9 L19,9 C16.790861,9 15,7.209139 15,5 C15,2.790861 16.790861,1 19,1 C21.209139,1 23,2.790861 23,5 C23,7.209139 21.209139,9 19,9 L19,9 Z" id="Shape"/><path d="M32,7.22222222 L32,7.22222222 C33.2272994,7.22222222 34.2222222,6.22729944 34.2222222,5 C34.2222222,3.77270056 33.2272994,2.77777778 32,2.77777778 C30.7727006,2.77777778 29.7777778,3.77270056 29.7777778,5 C29.7777778,6.22729944 30.7727006,7.22222222 32,7.22222222 L32,7.22222222 Z M32,9 L32,9 C29.790861,9 28,7.209139 28,5 C28,2.790861 29.790861,1 32,1 C34.209139,1 36,2.790861 36,5 C36,7.209139 34.209139,9 32,9 L32,9 Z" id="Shape"/></g></g></g></g></svg>

<svg width="64" height="64" viewBox="0 0 64 64" xmlns="http://www.w3.org/2000/svg"><title>icon-widget-pagination</title><desc>Created with Sketch.</desc><g fill="none" fill-rule="evenodd"><g><g><g transform="translate(-100 -197) translate(100 197)"><rect stroke="#2897C5" stroke-width="2" fill="#2897C5" width="64" height="64" rx="8"/><circle fill="#147CA7" cx="8" cy="8" r="4"/><circle fill="#147CA7" cx="55" cy="8" r="4"/><circle fill="#147CA7" cx="55" cy="56" r="4"/><circle fill="#147CA7" cx="8" cy="56" r="4"/></g><g transform="translate(14 27)" fill="#fff"><circle cx="5" cy="5" r="5"/><path d="M19 7.222c1.227 0 2.222-.995 2.222-2.222 0-1.227-.995-2.222-2.222-2.222-1.227 0-2.222.995-2.222 2.222 0 1.227.995 2.222 2.222 2.222zM19 9c-2.21 0-4-1.79-4-4s1.79-4 4-4 4 1.79 4 4-1.79 4-4 4zM32 7.222c1.227 0 2.222-.995 2.222-2.222 0-1.227-.995-2.222-2.222-2.222-1.227 0-2.222.995-2.222 2.222 0 1.227.995 2.222 2.222 2.222zM32 9c-2.21 0-4-1.79-4-4s1.79-4 4-4 4 1.79 4 4-1.79 4-4 4z"/></g></g></g></g></svg>
